X: 100264
T: "THE FAIRY WEDDING" POLKA
C: By W. C. Paton
R: polka
B: K\"ohler's Violin Repository, v.3, 1885 p.200 #1
F: http://www.archive.org/details/klersviolinrepos03rugg
Z: 2012 John Chambers <jc:trillian.mit.edu>
N: Last part has final repeat, but no open repeat; fixed.
M: 2/4
L: 1/16
K: Bb
%%indent 300
P: Introduction
(^c'd')d2 (^c'd')d2 | (^c'd')d2 (^c'd')d2 |\
{e}d^cde {e}dcde | d2z2 [d'4d4] ||
P: Polka
!segno!|:\
!mf!vF2B2(.c3.d) | c2B2 "^>"f4 |\
(fg)A2 (fg)A2 | (c2B2) F4 |\
F2B2(.c3.d) | c2B2 "^>"f4 |\
(fg)A2 (fg)A2 | [B2D2][B2D2][B2D2]z2 :|
|: !ff!(vG^F)GA (BA)BA | (G^F)GA (BA)BA |\
"^>"G2"^>"A2"^>"B2"^>"c2 | "^>"d2("^>".e2"^>".d4) |\
("^>"ed)cB A2D2 | ("^>"dc)BA G2D2 |\
G2G2 B2A2 | [1 G4 z2D2 :|[2 G2 z2!mf!F2 ||
vF2B2(.c3.d) | c2B2 "^>"f4 |\
(fg)A2 (fg)A2 | (c2B2) F4 |\
F2B2(.c3.d) | c2B2 "^>"f4 |\
(fg)A2 (fg)A2 | [B2D2][B2D2][B2D2]z2 ||
|:\
"_divisi"v[d2F2][d2F2] "^>"[c3F4] | [B2G2][B2G2] "^>"[A4^F4D4] |\
{A}G^F.G.A {c}BA.B.c | .d.e.d.^c d2D2 |\
[d2F2][d2F2] "^>"[c4F4] | [B2G2][B2G2] "^>"[A4^F4] |\
{A}G^F.G.A {c}BA.G.F | G2z2 "^>"[g4B4D4G,4] "_D.C."!segno!:|

%%sep 2 1 500

